X:783
T:Reel 783
M:4/4
K:Dmaj
L:1/8
A,|DFEC D2dB|AFEG FB,B,C|DCDE FGAB|AFGE FDDz|D2FD EFGB|AFDE FDEC|DCDE FGAd|cAGE FDD2|A|dfed cBAc|BAGB AFGE|d2cd dedc|AFEG FDDc|d2cd dedB|AFEG FDDC|A,DFG Adce|dAAG FDD|
